X: 80
M:6/8
L:1/8
K:G
u(Bc)|dBG dBG|ege dBG|(ca)g (Bg)B|cAG FED|
dBG ecA|fdB gag|fed cAF|AGG G2::
uG|.G(gf) .g(ag)|=fde f3 |F{g}(=fe) .f(gf)|edc dcA|


